src/images/single-assets/VALAS.svg

<svg width="25" height="24" viewBox="0 0 25 24" fill="none" xmlns="http://www.w3.org/2000/svg">
<path d="M12.4399 24C19.0674 24 24.4399 18.6274 24.4399 12C24.4399 5.37258 19.0674 0 12.4399 0C5.81253 0 0.439941 5.37258 0.439941 12C0.439941 18.6274 5.81253 24 12.4399 24Z" fill="#F6F3EC"/>
<path d="M12.4301 0C9.24746 0 6.19521 1.26427 3.94477 3.51471C1.69433 5.76515 0.430054 8.8174 0.430054 12C0.430054 15.1826 1.69433 18.2349 3.94477 20.4853C6.19521 22.7357 9.24746 24 12.4301 24C15.6127 24 18.6649 22.7357 20.9153 20.4853C23.1658 18.2349 24.4301 15.1826 24.4301 12C24.4301 8.8174 23.1658 5.76515 20.9153 3.51471C18.6649 1.26427 15.6127 0 12.4301 0V0ZM12.4301 23.05C10.9813 23.05 9.5468 22.7639 8.20895 22.2079C6.8711 21.652 5.65625 20.8373 4.63415 19.8105C3.61205 18.7838 2.80284 17.5653 2.25298 16.2249C1.70313 14.8846 1.42347 13.4487 1.43005 12C1.43005 9.08262 2.58898 6.28476 4.65188 4.22186C6.71478 2.15896 9.51267 1 12.4301 1C15.3474 1 18.1453 2.15896 20.2082 4.22186C22.2711 6.28476 23.4301 9.08262 23.4301 12C23.4366 13.4487 23.157 14.8846 22.6071 16.2249C22.0573 17.5653 21.2481 18.7838 20.226 19.8105C19.2039 20.8373 17.989 21.652 16.6512 22.2079C15.3133 22.7639 13.8788 23.05 12.4301 23.05V23.05Z" fill="url(#paint0_linear_0_1)"/>
<path d="M12.44 23.04C18.5372 23.04 23.48 18.0972 23.48 12C23.48 5.90274 18.5372 0.959961 12.44 0.959961C6.3428 0.959961 1.40002 5.90274 1.40002 12C1.40002 18.0972 6.3428 23.04 12.44 23.04Z" stroke="black" stroke-width="0.3" stroke-miterlimit="10"/>
<path d="M22.28 12.1001V12.8C22.2699 12.9711 22.2498 13.1414 22.22 13.3101V13.3101C21.9861 15.1872 21.2139 16.9565 19.9966 18.4044C18.7793 19.8524 17.169 20.9171 15.36 21.4701C15.6867 21.7901 16.0867 22.1601 16.56 22.5801C16.84 22.8301 16.56 23.2701 16.04 23.2701C14.5602 23.1949 13.1305 22.7102 11.91 21.8701C9.44911 21.7139 7.13803 20.634 5.43949 18.8464C3.74096 17.0589 2.78034 14.6957 2.74999 12.2301V12.1001C2.71577 9.67468 3.58966 7.32408 5.19999 5.51007V5.51007C5.48692 5.09221 5.86817 4.74773 6.3129 4.50452C6.75763 4.2613 7.25336 4.12622 7.75999 4.11011C9.91999 4.11011 11.92 7.2001 12.35 10.6001C12.4051 11.254 12.6153 11.8853 12.9631 12.4418C13.311 12.9983 13.7864 13.4639 14.35 13.8C15.0347 14.2139 15.8199 14.4318 16.62 14.4301C17.7737 14.4301 18.8801 13.9718 19.6959 13.156C20.5117 12.3402 20.97 11.2338 20.97 10.0801C20.9703 9.45909 20.8373 8.84528 20.58 8.28009C20.5154 8.52566 20.4249 8.76363 20.31 8.99005C20.2086 9.17868 20.088 9.35632 19.95 9.52008C19.7297 9.78211 19.47 10.0081 19.18 10.1901C18.7062 10.4908 18.1608 10.6599 17.6 10.6801C17.5761 10.1167 17.7039 9.55721 17.97 9.06006C18.2315 8.56541 18.6219 8.1508 19.1 7.86011C19.4071 7.66667 19.7455 7.52791 20.1 7.45007C20.2876 7.40873 20.4782 7.38196 20.67 7.37006V7.37006C20.4474 7.39507 20.2226 7.39507 20 7.37006C19.6822 7.31028 19.3753 7.20237 19.09 7.05005C18.61 6.79795 18.2035 6.42592 17.91 5.97009V5.9201C17.6123 5.44549 17.4466 4.90007 17.43 4.34009C17.9896 4.32224 18.5443 4.44971 19.04 4.71008C19.5313 4.97993 19.9472 5.36839 20.25 5.84009C20.5187 6.27965 20.6797 6.77649 20.72 7.2901L20.78 6.94006C21.753 8.48583 22.2727 10.2736 22.28 12.1001V12.1001Z" fill="#090C13"/>
<path d="M6.63003 5.11011C6.11842 5.10229 5.61527 5.24105 5.18003 5.51007V5.51007C5.46696 5.09221 5.8482 4.74773 6.29293 4.50452C6.73766 4.2613 7.23339 4.12622 7.74003 4.11011C9.90003 4.11011 11.9 7.2001 12.33 10.6001C12.3852 11.254 12.5954 11.8853 12.9432 12.4418C13.291 12.9983 13.7664 13.4639 14.33 13.8C15.0148 14.2139 15.8 14.4318 16.6 14.4301C17.1713 14.4301 17.7369 14.3175 18.2647 14.0989C18.7925 13.8803 19.272 13.5599 19.6759 13.156C20.0799 12.7521 20.4003 12.2725 20.6189 11.7448C20.8375 11.217 20.95 10.6513 20.95 10.0801C20.9503 9.45909 20.8173 8.84528 20.56 8.28009C20.6397 7.98366 20.6734 7.67672 20.66 7.37006C20.6646 7.32684 20.6646 7.28326 20.66 7.24005L20.72 6.89008C21.702 8.45023 22.2221 10.2566 22.22 12.1001V12.8C22.1311 14.1557 21.5298 15.4268 20.5381 16.3554C19.5464 17.284 18.2386 17.8004 16.88 17.8C15.8806 17.8615 14.8851 17.6291 14.0162 17.1316C13.1472 16.634 12.4429 15.8931 11.99 15.0001C11.5445 13.9408 11.2743 12.8162 11.19 11.6701C10.44 7.6701 8.62003 5.15009 6.59003 5.15009C6.07842 5.14227 5.57526 5.28103 5.14003 5.55005C3.52775 7.36358 2.65049 9.71367 2.68003 12.1401C2.67469 12.1832 2.67469 12.2269 2.68003 12.2701C2.70899 14.8421 3.75109 17.299 5.5802 19.1075C7.4093 20.916 9.87781 21.9302 12.45 21.9301C14.8505 21.9284 17.1665 21.044 18.957 19.4452C20.7476 17.8464 21.8876 15.645 22.16 13.2601" stroke="#F6F3EC" stroke-width="0.26" stroke-miterlimit="10"/>
<path d="M20.73 7.36999C20.5074 7.39501 20.2826 7.39501 20.06 7.36999C19.7421 7.31022 19.4353 7.20231 19.15 7.04999C18.67 6.79789 18.2635 6.42586 17.97 5.97003V5.92004C17.6723 5.44543 17.5066 4.90001 17.49 4.34003C18.0496 4.32218 18.6043 4.44965 19.1 4.71002C19.5913 4.97987 20.0072 5.36833 20.31 5.84003C20.5787 6.27959 20.7397 6.77643 20.78 7.29004C20.7654 7.31794 20.7487 7.34464 20.73 7.36999V7.36999Z" fill="#090C13" stroke="#F6F3EC" stroke-width="0.26" stroke-miterlimit="10"/>
<path d="M20.73 7.36987C20.7435 7.67654 20.7097 7.98348 20.63 8.27991C20.5716 8.52422 20.4808 8.75965 20.36 8.97992C20.2576 9.17105 20.1371 9.35186 20 9.5199C19.7798 9.78193 19.52 10.008 19.23 10.1899C18.7562 10.4906 18.2109 10.6597 17.65 10.6799C17.6262 10.1165 17.7539 9.55702 18.02 9.05988C18.2815 8.56523 18.672 8.15062 19.15 7.85992C19.4572 7.66649 19.7955 7.52773 20.15 7.44989C20.3377 7.40854 20.5283 7.38178 20.72 7.36987H20.73Z" fill="#090C13" stroke="#F6F3EC" stroke-width="0.26" stroke-miterlimit="10"/>
<path d="M11.73 10.87C11.7302 11.0002 11.6806 11.1257 11.5913 11.2205C11.5021 11.3153 11.38 11.3724 11.25 11.38H11.18C11.11 11.05 11.04 10.74 10.96 10.44C11.0341 10.3915 11.1214 10.367 11.21 10.37C11.2773 10.3673 11.3445 10.3783 11.4074 10.4022C11.4704 10.4261 11.5279 10.4625 11.5765 10.5093C11.6251 10.556 11.6637 10.612 11.6901 10.674C11.7164 10.736 11.73 10.8027 11.73 10.87Z" fill="#F6F3EC"/>
<path d="M14.54 19.39H14.43C13.7 19.32 12.97 19.39 16.54 22.59C16.82 22.84 16.54 23.28 16.02 23.28C14.1524 23.1436 12.3751 22.4229 10.94 21.22C10.3245 20.7632 9.76116 20.24 9.26001 19.66" fill="#090C13"/>
<path d="M14.54 19.39H14.43C13.7 19.32 12.97 19.39 16.54 22.59C16.82 22.84 16.54 23.28 16.02 23.28C14.1524 23.1436 12.3751 22.4229 10.94 21.22C10.3245 20.7632 9.76116 20.24 9.26001 19.66" stroke="#F6F3EC" stroke-width="0.26" stroke-miterlimit="10" stroke-linecap="round"/>
<defs>
<linearGradient id="paint0_linear_0_1" x1="0.440054" y1="12" x2="24.4401" y2="12" gradientUnits="userSpaceOnUse">
<stop stop-color="#D1DAF1"/>
<stop offset="0.17" stop-color="#D5D3E8"/>
<stop offset="0.47" stop-color="#E1C1CE"/>
<stop offset="0.83" stop-color="#F5A3A5"/>
<stop offset="0.99" stop-color="#FE9591"/>
</linearGradient>
</defs>
</svg>

<svg xmlns="http://www.w3.org/2000/svg" width="25" height="24" fill="none"><path fill="#F6F3EC" d="M12.44 24c6.627 0 12-5.373 12-12s-5.373-12-12-12-12 5.373-12 12 5.373 12 12 12"/><path fill="url(#a)" d="M12.43 0a12 12 0 1 0 0 24 12 12 0 0 0 0-24m0 23.05A11 11 0 0 1 1.43 12a11 11 0 0 1 22 0 11 11 0 0 1-11 11.05"/><path stroke="#000" stroke-miterlimit="10" stroke-width=".3" d="M12.44 23.04c6.097 0 11.04-4.943 11.04-11.04S18.537.96 12.44.96 1.4 5.903 1.4 12s4.943 11.04 11.04 11.04Z"/><path fill="#090C13" d="M22.28 12.1v.7q-.015.256-.06.51a9.8 9.8 0 0 1-6.86 8.16q.49.48 1.2 1.11c.28.25 0 .69-.52.69a8 8 0 0 1-4.13-1.4 9.78 9.78 0 0 1-9.16-9.64v-.13A9.72 9.72 0 0 1 5.2 5.51a3.23 3.23 0 0 1 2.56-1.4c2.16 0 4.16 3.09 4.59 6.49a4.13 4.13 0 0 0 2 3.2 4.37 4.37 0 0 0 5.346-.644 4.35 4.35 0 0 0 .884-4.876 3.6 3.6 0 0 1-.27.71 3 3 0 0 1-.36.53c-.22.262-.48.488-.77.67-.474.3-1.02.47-1.58.49a3.15 3.15 0 0 1 1.5-2.82 3.1 3.1 0 0 1 1-.41 4 4 0 0 1 .57-.08 3 3 0 0 1-.67 0 3.2 3.2 0 0 1-.91-.32 3.14 3.14 0 0 1-1.18-1.08v-.05a3.15 3.15 0 0 1-.48-1.58 3.24 3.24 0 0 1 1.61.37c.491.27.907.658 1.21 1.13.269.44.43.936.47 1.45l.06-.35a9.76 9.76 0 0 1 1.5 5.16"/><path stroke="#F6F3EC" stroke-miterlimit="10" stroke-width=".26" d="M6.63 5.11a2.7 2.7 0 0 0-1.45.4 3.23 3.23 0 0 1 2.56-1.4c2.16 0 4.16 3.09 4.59 6.49a4.13 4.13 0 0 0 2 3.2 4.37 4.37 0 0 0 5.346-.644 4.35 4.35 0 0 0 .884-4.876 3 3 0 0 0 .1-.91.6.6 0 0 0 0-.13l.06-.35a9.76 9.76 0 0 1 1.5 5.21v.7a5.35 5.35 0 0 1-5.34 5 5.13 5.13 0 0 1-4.89-2.8 10.6 10.6 0 0 1-.8-3.33c-.75-4-2.57-6.52-4.6-6.52a2.7 2.7 0 0 0-1.45.4 9.74 9.74 0 0 0-2.46 6.59.5.5 0 0 0 0 .13 9.77 9.77 0 0 0 16.277 7.175 9.78 9.78 0 0 0 3.203-6.185"/><path fill="#090C13" stroke="#F6F3EC" stroke-miterlimit="10" stroke-width=".26" d="M20.73 7.37a3 3 0 0 1-.67 0 3.2 3.2 0 0 1-.91-.32 3.14 3.14 0 0 1-1.18-1.08v-.05a3.15 3.15 0 0 1-.48-1.58 3.24 3.24 0 0 1 1.61.37c.491.27.907.658 1.21 1.13.269.44.43.936.47 1.45a1 1 0 0 1-.05.08Z"/><path fill="#090C13" stroke="#F6F3EC" stroke-miterlimit="10" stroke-width=".26" d="M20.73 7.37c.014.307-.02.613-.1.91-.058.244-.15.48-.27.7a3.4 3.4 0 0 1-.36.54c-.22.262-.48.488-.77.67-.474.3-1.02.47-1.58.49a3.15 3.15 0 0 1 1.5-2.82 3.1 3.1 0 0 1 1-.41q.282-.062.57-.08z"/><path fill="#F6F3EC" d="M11.73 10.87a.51.51 0 0 1-.48.51h-.07c-.07-.33-.14-.64-.22-.94a.43.43 0 0 1 .25-.07.5.5 0 0 1 .52.5"/><path fill="#090C13" d="M14.54 19.39h-.11c-.73-.07-1.46 0 2.11 3.2.28.25 0 .69-.52.69a8.92 8.92 0 0 1-5.08-2.06 10.5 10.5 0 0 1-1.68-1.56"/><path stroke="#F6F3EC" stroke-linecap="round" stroke-miterlimit="10" stroke-width=".26" d="M14.54 19.39h-.11c-.73-.07-1.46 0 2.11 3.2.28.25 0 .69-.52.69a8.92 8.92 0 0 1-5.08-2.06 10.5 10.5 0 0 1-1.68-1.56"/><defs><linearGradient id="a" x1=".44" x2="24.44" y1="12" y2="12" gradientUnits="userSpaceOnUse"><stop stop-color="#D1DAF1"/><stop offset=".17" stop-color="#D5D3E8"/><stop offset=".47" stop-color="#E1C1CE"/><stop offset=".83" stop-color="#F5A3A5"/><stop offset=".99" stop-color="#FE9591"/></linearGradient></defs></svg>
